X: 11
T: Lord Kellys Reel
%R: reel
B: "Twenty Four Favourite Dances for the Year 1783", Thomas Straight, ed. p.6 #1
F: http://www.vwml.org/browse/browse-collections-dance-tune-books/browse-straights1783
Z: 2014 John Chambers <jc:trillian.mit.edu>
M: C|
L: 1/8
K: Gdor
B |\
DGBG dGBG | F2f2 F>G B/A/G/F/ |\
DG^FA GBAc | B>f d/c/B/A/ BGG :: g |\
bgdg Gg2b | afcf Ff2a |
bgdg fdcA | B>f d/c/B/A/ BG2g |\
bgdg Gdgb | afcf Fcfa |\
bgaf gdcA | B>f d/c/B/A/ BG-G :|
% - - - - - - - - - - Dance description - - - - - - - - - -
%%begintext align
%% Cast off 1 Cu up again .|. cross over 1 Cu
%% half figure at bottom set to the top Cu :|.
%% hands 4 at bottom right & left at top :|:
%%endtext
